X:1
T:Fisherman’s Wharf, 75.75 D
T:Fisherman’s Wharf, 75.75 D
T:Ira David Sankey (1840-1908)
T:Public Domain Courtesy of the Cyber Hymnal™
C:Ira David Sankey (1840-1908)
Z:Public Domain
Z:Courtesy of the Cyber Hymnal™
%%score 1 ( 2 3 )
L:1/8
Q:1/4=115
M:4/4
K:A
V:1 treble 
V:2 bass 
V:3 bass 
V:1
 [CE]2 [CE]2 [CE]2 [CE]2 | [EA]3 [EB] [Ec]4 | [Fd]2 [Fd]2 [DG]2 [DG]2 | [CA]8 | %4
 [CE]2 [CE]2 [CE]2 [CE]2 | [EA]3 [EB] [Ec]4 | [Fd]2 [Fd]2 [DG]2 [DG]2 | [CA]8 | %8
 [ce]3 [Bd] [Ac]2 [GB]2 | [FA]3 [EG] [DF]2 [CE]2 | [CE]2 [EA]2 [EB]3 [Ec] | [EB]8 | %12
 [Ec]3 [Ec] [DB]2 [CA]2 | [EG]2 [DF]2 [CE]2 [EA]2 | [DB]3 [CA] [Ec]2 [DB]2 | [CA]8 |] %16
V:2
 [A,,A,]2 [A,,A,]2 [A,,A,]2 [A,,A,]2 | [C,A,]3 [E,G,] A,4 | [D,A,]2 [B,,B,]2 [E,B,]2 [E,B,]2 | %3
 [A,,A,]8 | [A,,A,]2 [A,,A,]2 [A,,A,]2 [A,,A,]2 | [C,A,]3 [E,G,] A,4 | %6
 [D,A,]2 [B,,B,]2 [E,B,]2 [E,B,]2 | [A,,A,]8 | [A,,A,]3 [A,,A,] [A,,A,]2 [A,,A,]2 | %9
 [A,,A,]3 [A,,A,] [A,,A,]4 | [A,,A,]2 [C,A,]2 [E,G,]3 [E,A,] | [E,G,]8 | %12
 [A,,A,]3 [A,,A,] [A,,A,]2 [A,,A,]2 | [D,A,]2 [D,A,]2 A,4 | [E,G,]3 [E,A,] [E,A,]2 [E,G,]2 | %15
 [A,,A,]8 |] %16
V:3
 x8 | x4 A,4 | x8 | x8 | x8 | x4 A,4 | x8 | x8 | x8 | x8 | x8 | x8 | x8 | x4 A,,2 C,2 | x8 | x8 |] %16

